X:1
T:Jam lucis orto
T:André Vierendeels 
T:(25/02/18)
T:Early melody
T:Jam lucis orto 2
T:ad voces aequales
T:©
T:©
T:©
C:André Vierendeels
Z:©
%%score [ 1 2 3 4 ]
L:1/8
Q:1/4=120
M:2/2
K:C
V:1 treble-8 nm="Tenor 1" snm="T 1"
V:2 treble-8 nm="Tenor 2" snm="T 2"
V:3 treble-8 nm="Tenor 3" snm="T 3"
V:4 bass nm="Bass" snm="B"
V:1
 z4 A4 | c4 A4 | c4 d4 | e4 d4 | !fermata!c4 c4 | g4 g4 | e4 g4 | e6 d2 | !fermata!e4 d4 | e4 a4 | %10
w: Jam|lu- cis|or- to|si- de-|re De-|um pre-|ce- mur|sup- pli-|ces, ut|in di-|
 g4 e4 | c4 B4 | !fermata!A4 e4 | e4 d4 | c4 d4 | e6 d2 | !fermata!A4 e4 | e4 d4 | c4 B4 | %19
w: ur- nis|ac- ti-|bus nos|ser- vet|a no-|cen- ti-|bus. Ky-|ri- e,|e- lei-|
 !fermata!A8 |] %20
w: son.|
V:2
 z4 E4 | E4 F4 | A4 B4 | c4 A4 | !fermata!A4 G2 A2 | B4 edcB | c4 d2 e2 | AcBA B4 | %8
w: Jam|lu- cis|or- to|si- de-|re De- um|pre- ce- * * *|* mur sup-|pli- * * * *|
 !fermata!^c4 A4 | c4 e2 c2 | B4 c4 | A4 e4 | !fermata!^c4 B4 | c4 B2 AG | A2 Bc B4 | B6 B2 | %16
w: ces, ut|in di- *|ur- nis|ac- ti-|bus nos|ser- vet _ _|a _ _ no-|cen- ti-|
 !fermata!^c4 B4 | G4 B4 | E4 e4 | !fermata!^c8 |] %20
w: bus. Ky-|ri- e,|e- lei-|son.|
V:3
 z4 C4 | G4 C4 | E4 G4 | G4 F4 | !fermata!E4 E4 | G4 G4 | E2 A2 B2 G2 | B4 ^G2 B2 | %8
w: Jam|lu- cis|or- to|si- de-|re De-|um pre|ce- * * mur|sup- * pli-|
 !fermata!A4 F4 | G4 E4 | G4 G4 | F4 A2 ^G2 | !fermata!E4 G4 | A4 E4 | D4 E4 | G2 A4 ^G2 | %16
w: ces, ut|in di-|ur- nis|ac- ti- *|bus nos|ser- vet|a no-|cen- * ti-|
 !fermata!E4 G4 | C4 D4 | A4 ^G4 | !fermata!E8 |] %20
w: bus. Ky-|ri- e,|e- lei-|son.|
V:4
 z4 A,,4 | C,4 F,,4 | A,,4 G,,4 | C,4 D,4 | !fermata!A,,4 C,4 | G,4 E,4 | A,,4 G,,2 C,2 | E,4 E,4 | %8
w: Jam|lu- cis|or- to|si- de|re De-|um pre-|ce- * mur|sup- pli-|
 !fermata!A,,4 D,4 | C,4 A,,4 | E,4 C,4 | F,4 E,4 | !fermata!A,,4 E,4 | C,4 G,,4 | F,,4 G,,4 | %15
w: ces, ut|in di-|ur- nis|ac- ti-|bus nos|ser- vet|a no-|
 E,4 E,4 | !fermata!A,,4 E,4 | C,4 G,,4 | A,,4 E,4 | !fermata!A,,8 |] %20
w: cen- ti-|bus. Ky-|ri- e,|e- lei-|son.|

